icons/16/file-directory.svg

<svg width="16" height="16" viewBox="0 0 16 16" xmlns="http://www.w3.org/2000/svg">
  <path fill-rule="evenodd" clip-rule="evenodd" d="M1.75 2.5C1.6837 2.5 1.62011 2.52634 1.57322 2.57322C1.52634 2.62011 1.5 2.6837 1.5 2.75V13.25C1.5 13.388 1.612 13.5 1.75 13.5H14.25C14.3163 13.5 14.3799 13.4737 14.4268 13.4268C14.4737 13.3799 14.5 13.3163 14.5 13.25V4.75C14.5 4.6837 14.4737 4.62011 14.4268 4.57322C14.3799 4.52634 14.3163 4.5 14.25 4.5H7.75C7.2 4.5 6.68 4.24 6.35 3.8L5.45 2.6C5.42671 2.56895 5.39652 2.54375 5.3618 2.52639C5.32709 2.50904 5.28881 2.5 5.25 2.5H1.75V2.5ZM0 2.75C0 1.784 0.784 1 1.75 1H5.25C5.8 1 6.32 1.26 6.65 1.7L7.55 2.9C7.57329 2.93105 7.60348 2.95625 7.6382 2.97361C7.67291 2.99096 7.71119 3 7.75 3H14.25C15.216 3 16 3.784 16 4.75V13.25C16 13.7141 15.8156 14.1592 15.4874 14.4874C15.1592 14.8156 14.7141 15 14.25 15H1.75C1.28587 15 0.840752 14.8156 0.512563 14.4874C0.184374 14.1592 0 13.7141 0 13.25L0 2.75Z"/>
</svg>

<svg width="16" height="16" viewBox="0 0 16 16" xmlns="http://www.w3.org/2000/svg">
  <path fill-rule="evenodd" clip-rule="evenodd" d="M1.75 2.5a.25.25 0 00-.25.25v10.5c0 .138.112.25.25.25h12.5a.25.25 0 00.25-.25v-8.5a.25.25 0 00-.25-.25h-6.5c-.55 0-1.07-.26-1.4-.7l-.9-1.2a.25.25 0 00-.2-.1h-3.5zM0 2.75C0 1.784.784 1 1.75 1h3.5c.55 0 1.07.26 1.4.7l.9 1.2a.25.25 0 00.2.1h6.5c.966 0 1.75.784 1.75 1.75v8.5A1.75 1.75 0 0114.25 15H1.75A1.75 1.75 0 010 13.25V2.75z"/>
</svg>
